X:1
T:Title
%%score { 1 | 2 }
L:1/8
M:6/8
K:Eb
V:1 treble nm="Grand Piano"
V:2 bass 
V:1
 z3 z2[Q:1/4=78] B | BGF EFA | G B2- B2 [GB] | [Ge]>[Gd][Gc] =ABc |[M:5/8] [DB]- [DB]3 z | %5
[M:1/8] [DB] |[M:3/4] BG FE FA | GB- B3 B | BA [Ec][EB] [Ge][Fd] |[M:5/8] [Ge]-[Ge]- [Ge]3 | %10
[M:1/8] B |[M:3/4] B=A G_G =GA | =AG- G3 B | d>c B=A Bc |[M:5/8] B- B3 z |[M:1/8] B | %16
[M:3/4] [Ge][Gd] [Gc][_Gc] [B,=GB][B,EG] | [_DEB][CEA]- [CEA]3 [Ec] | [EB][EB] E[EG] [DG]>[DF] | %19
[M:5/8] E- E3 z |[M:1/8] B |[M:3/4] BG FE FA | GB- B3 [GB] | [Ge]>[Gd] [Gc]=A Bc | %24
[M:5/8] [DB]- [DB]3 z |[M:1/8] [DB] |[M:3/4] BG FE FA | GB- B3 B | BA [Ec][EB] [Ge][Fd] | %29
[M:13/8] [Ge]-[Ge]- [Ge]3 z z z z z z z2 |] %30
V:2
 z3 z2 [E,G,E] | [E,G,E][E,B,E][E,A,E] [E,G,][E,A,E][E,CE] | [E,B,E] [E,G,E]2- [E,G,E]2 [E,B,] | %3
 [E,B,]>[E,B,][E,E] [F,CF][F,B,DF][F,=A,E] |[M:5/8] [B,,B,]- [B,,B,]3 z |[M:1/8] [B,,A,] | %6
[M:3/4] [E,G,E][E,B,E] [E,A,E][E,G,] [E,A,E][E,CE] | [E,B,E][E,G,E]- [E,G,E]3 [E,_DE] | %8
 [A,_DE][A,CE] [A,,A,][B,,G,] [B,,B,][B,,B,] |[M:5/8] [E,B,]-[E,B,]- [E,B,]3 |[M:1/8] [G,B,D] | %11
[M:3/4] [G,B,D][G,CD] [G,B,D][D,=A,D] [D,B,D][D,CD] | [G,CD][G,B,D]- [G,B,D]3 [G,B,D] | %13
 [F,B,F]>[F,EF] [F,DF][F,CF] [F,DF][F,EF] |[M:5/8] [B,DF]- [B,DF]3 z |[M:1/8] [B,DA] | %16
[M:3/4][K:bass] [E,E][E,B,] [E,B,][E,=A,] E,E, | A,,A,,- A,,3 [A,,F,A,] | %18
 [B,,G,][B,,G,] [B,,G,][B,,B,] [B,,B,]>[B,,A,] |[M:5/8] [E,G,]- [E,G,]3 z |[M:1/8] [E,G,E] | %21
[M:3/4] [E,G,E][E,B,E] [E,A,E][E,G,] [E,A,E][E,CE] | [E,B,E][E,G,E]- [E,G,E]3 [E,B,] | %23
 [E,B,]>[E,B,] [E,E][F,CF] [F,B,DF][F,=A,E] |[M:5/8] [B,,B,]- [B,,B,]3 z |[M:1/8] [B,,A,] | %26
[M:3/4] [E,G,E][E,B,E] [E,A,E][E,G,] [E,A,E][E,CE] | [E,B,E][E,G,E]- [E,G,E]3 [E,_DE] | %28
 [A,_DE][A,CE] [A,,A,][B,,G,] [B,,B,][B,,B,] |[M:13/8] [E,B,]-[E,B,]- [E,B,]3 z z z z z z z2 |] %30

